packages/sources/icons/src/vitamix/arrow-go-back-line.svg

<svg width="16" height="16" viewBox="0 0 16 16" fill="none" xmlns="http://www.w3.org/2000/svg">
<path d="M3.88533 4.66665L5.57599 6.35732L4.63333 7.29998L1.33333 3.99998L4.63333 0.699982L5.57599 1.64265L3.88533 3.33332H8.66666C11.6122 3.33332 14 5.72113 14 8.66665C14 11.6122 11.6122 14 8.66666 14H2.66666V12.6666H8.66666C10.8758 12.6666 12.6667 10.8758 12.6667 8.66665C12.6667 6.45751 10.8758 4.66665 8.66666 4.66665H3.88533Z" fill="#001018"/>
</svg>

<svg width="16" height="16" fill="none" xmlns="http://www.w3.org/2000/svg"><path d="m3.885 4.667 1.691 1.69-.943.943-3.3-3.3 3.3-3.3.943.943-1.69 1.69h4.78a5.333 5.333 0 1 1 0 10.667h-6v-1.333h6a4 4 0 1 0 0-8h-4.78z" fill="#001018"/></svg>
